!!!!SEGMENT: pl-sa--268-a-vii-28--003_siwinski-andrzej--salve-o-purerpera-templum-trinitatis.krn
!!!cenid: 17xx:315
!!!COM: Siwiński, Andrzej
!!!COM-rismid: pe41011487
!!!CDT: <1725->1725
!!!CNT:
!!!OTL: Salve o purerpera templum Trinitatis
!!!PDT: 1729
!!!AGN: Sacred
!!!SMS-siglum: PL-SA
!!!SMS-shelfmark: 268/A VII 28
!!!SMS-shelfwork: 003 W
!!!NIFC-rismid: 1001069565
!!!system-decoration: [(s1,s2,s3,s4)][(s5,s6)]s7
**kern	**fba	**kern	**kern	**kern	**text	**kern	**text	**kern	**text	**kern	**text
*part7	*part7	*part6	*part5	*part4	*part4	*part3	*part3	*part2	*part2	*part1	*part1
*staff7	*staff7	*staff6	*staff5	*staff4	*staff4	*staff3	*staff3	*staff2	*staff2	*staff1	*staff1
*I"Baſso (et) Organo	*	*I"Violino 2do	*I"Violino 1mo	*I"Baſso	*	*I"Tenore	*	*I"Alto	*	*I"Canto	*
*I'bc	*	*I'vl 2	*I'vl 1	*I'B	*	*I'T	*	*I'A	*	*I'S	*
*clefF4	*	*clefG2	*clefG2	*clefF4	*	*clefC4	*	*clefC3	*	*clefC1	*
*k[f#]	*	*k[f#c#]	*k[f#c#]	*k[f#c#]	*	*k[f#]	*	*k[f#c#]	*	*k[f#c#]	*
*M4/4	*	*M4/4	*M4/4	*M2/2	*	*M4/4	*	*M4/4	*	*M4/4	*
*met(c)	*	*met(c)	*met(c)	*met(c|)	*	*met(c)	*	*met(c)	*	*met(c)	*
=1	=1	=1	=1	=1	=1	=1	=1	=1	=1	=1	=1
*2\right	*	*2\right	*2\right	*2\right	*	*	*	*	*	*	*
!	!	!	!LO:TX:a:t=P:wszystkie caudy w dół z prawej strony:problem	!	!	!	!	!	!	!LO:TX:a:t=P:wszystkie caudy w dół z prawej strony:problem	!
!LO:TX:a:t=P:w źródle jeden znak przykluczowy f#; znak f# zapisany w dwóch oktawach:problem	!	!LO:TX:a:t=P:w źródle dwa znaki przykluczowe f#c#; znak f# zapisany w dwóch oktawach:problem	!LO:TX:a:t=P:w źródle dwa znaki przykluczowe f#c#:problem	!LO:TX:a:t=P:w źródle dwa znaki przykluczowe f#c#:problem	!	!LO:TX:a:t=P:w źródle jeden znak przykluczowy f#:problem	!	!LO:TX:a:t=P:w źródle dwa znaki przykluczowe f#c#:problem	!	!LO:TX:a:t=P:w pierwszym systemie dwa znaki przykluczowe f#c#; od drugiego systemu tylko f#:problem	!
!	!	!	!	!LO:TX:a:t=P:w źródle metrum alla breve:problem	!	!	!	!	!	!	!
!LO:TX:a:i:t=ſolo	!	!LO:TX:a:Bi:t=ſolo:rj	!LO:TX:a:i:t=Solo	!	!	!	!	!	!	!	!
!LO:TX:b:Bi:t=ſalve o puerpera:dur=6q:ext=s:problem:text with extention lines	!	!LO:TX:b:Bi:t=ſalve o puerpera:dur=11q:ext=s:problem:text with extention lines	!LO:TX:b:Bi:t=ſalve o puer	!	!	!	!	!	!	!	!
!	!	!	!LO:TX:a:t=P:mixed beam:problem	!	!	!	!	!	!	!	!
4GG/	.	4b/	8gg\L	0r	.	0r	.	0r	.	1r	.
.	.	.	8g/	.	.	.	.	.	.	.	.
8r	.	8r	8gg\	.	.	.	.	.	.	.	.
8BB/	.	8b/	8g/J	.	.	.	.	.	.	.	.
!	!	!LO:SIC:s=8cc:v	!	!	!	!	!	!	!	!	!
4C/	.	8dd\L	16ee\LL	.	.	.	.	.	.	.	.
.	.	.	16dd\	.	.	.	.	.	.	.	.
.	.	8a\	16ee\	.	.	.	.	.	.	.	.
.	.	.	16ff#\JJ	.	.	.	.	.	.	.	.
8r	.	8b\	8gg\L	.	.	.	.	.	.	.	.
8G\	.	8g\J	8g\J	.	.	.	.	.	.	.	.
!	!	!	!	!	!	!	!	!	!	!LO:TX:a:t=P:w źródle brak kreski taktowej; problem przy renderowaniu; ukryte kreski taktowe w pozostałych głosach wokalnych w takcie drugim poprawiły renderowanie:problem	!
=2	=2	=2	=2	=2-	=2-	=2-	=2-	=2-	=2-	=2-	=2-
!	!	!	!LO:SIC:s=8ccn:v	!	!	!	!	!	!	!	!
4A\	6	4a/	8cc#\L	.	.	.	.	.	.	2r	.
.	.	.	8ee\	.	.	.	.	.	.	.	.
8r	.	8r	8a\	.	.	.	.	.	.	.	.
8F#\	6	8a/	8dd\J	.	.	.	.	.	.	.	.
8G\L	.	4g/	4b\	.	.	.	.	.	.	4g\	ſal-
!LO:TX:a:Bi:t=Tutti	!	!	!	!	!	!	!	!	!	!	!
8A\	.	.	.	.	.	.	.	.	.	.	.
8B\	.	4r	4r	.	.	.	.	.	.	8g\	-ve
8G\J	.	.	.	.	.	.	.	.	.	8g\	o
=3	=3	=3	=3	=3-	=3-	=3-	=3-	=3-	=3-	=3	=3
8F#\L	.	4f#/	4a/	4D/	ſal-	4A\	ſal-	4f#\	ſal-	8dd\	ſal-
8E\	.	.	.	.	.	.	.	.	.	8dd\	-ve
8F#\	.	8f#/L	8a/L	8D/	-ve	8A\	-ve	8f#\	-ve	8dd\	o
8D\J	.	8f#/J	8a/J	8D/	o	8A\	o	8f#\	o	8dd\	pu-
!	!	!	!	!	!	!	!	!	!	!LO:SIC:s=-er-:v	!
8GG/L	.	4b\	4dd\	8G\	ſal-	8B\	sal-	8g\	sal-	8.b\	-rer-
8AA/	.	.	.	8G\	-ve	8B\	-ve	8a\	-ve	.	.
.	.	.	.	.	.	.	.	.	.	16a\	-pe-
8BB/	.	8b\L	8dd\L	8G\	o	8B\	o	8b\	o	4g/	-ra.
8C/J	.	8b\J	8dd\J	8G\	pu-	8c#X\	pu-	8g\	pu-	.	.
=4	=4	=4	=4	=4	=4	=4	=4	=4	=4	=4	=4
8D\L	.	8.f#/L	8.a/L	8.F#\	-er-	8.d\	-er-	8.a\	-er-	2r	.
8E\	.	.	.	.	.	.	.	.	.	.	.
.	.	16f#/Jk	16a/Jk	16E\	-pe-	16d\	-pe-	16a\	-pe-	.	.
8F#\	.	4f#/	4a/	4D\	-ra	4d\	-ra	4a\	-ra	.	.
8D\J	.	.	.	.	.	.	.	.	.	.	.
!LO:TX:a:t=P:mixed beam:problem	!	!LO:TX:a:t=raz	!	!	!	!	!	!	!	!	!
!	!	!LO:N:vis=16	!	!	!	!	!	!	!	!	!
8F#\L	6	8a/L	8dd\L	8F#\	te(m)-	8F#/	tem-	8d\	Tem-	8a\	Temp-
!	!	!LO:N:vis=16	!	!	!	!	!	!	!	!	!
8G\	5	8b/	8dd\	8G\	-plu(m)	8B\	-plu(m)	8d\	-plu(m)	8b\	-lu(m)
!	!	!LO:TX:a:t=P:w źródle '#' pod nutą 8cc#:problem	!	!	!	!	!	!	!	!	!
!	!	!LO:N:vis=16	!	!	!	!	!	!	!	!	!
8A\	.	8cc#i/	8ee\	8A\	tri-	8A\	Tri-	8e\	tri-	8a\	Tri-
!	!	!LO:N:vis=16	!	!	!	!	!	!	!	!	!
8AA/J	4	8dd/J	8ee\J	8AA/	-ni-	8A\	-ni-	8e\	-ni-	8g\	-ni-
.	3	.	.	.	.	.	.	.	.	.	.
!LO:LB:g=original	!	!	!	!	!	!	!	!	!	!	!
=5	=5	=5	=5	=5	=5	=5	=5	=5	=5	=5	=5
4D/	.	4dd\	4ff#\	8D/	-ta-	8A\	-ta-	8d\	-ta-	8f#/	-ta-
.	.	.	.	8D/	-tis	8A\	-tis	8d\	-tis	8f#/	-tis
8d\L	.	4r	4r	8d\	an-	8d\	an-	8f#\	an-	8a\	an-
8c#X\J	6	.	.	8c#X\	-ge-	8A\	-ge-	8e\	-ge-	8a\	-ge-
8d\L	.	4r	4r	8d\	-lo-	8d\	-lo-	8f#\	-lo-	8a\	-lo-
8A\J	.	.	.	8B\	-ru(m)	8c#X\	-ru(m)	8e\	-rum	8a\	-rum
8D/L	.	8dd\L	8ff#\L	4r	.	4r	.	4r	.	4r	.
8C#X/J	6	8a\J	8ee\J	.	.	.	.	.	.	.	.
!	!	!	!	!	!	!LO:PB:g=original	!	!LO:PB:g=original	!	!LO:LB:g=original	!
=6	=6	=6	=6	=6	=6	=6	=6	=6	=6	=6	=6
*	*	*	*	*	*	*	*	*	*	*k[f#]	*
8D/L	.	8dd\L	8ff#\L	4r	.	4r	.	4r	.	4r	.
8AA/J	.	8cc#X\J	8ee\J	.	.	.	.	.	.	.	.
8d\L	.	4r	4r	8d\	an-	8d\	an-	8f#\	an-	8a\	an-
8c#X\J	6	.	.	8c#X\	-ge-	8A\	-ge-	8e\	-ge-	8a\	-ge-
!	!	!	!	!LO:LB:g-original	!	!	!	!	!	!	!
8d\L	.	4r	4r	8d\	-lo-	8d\	-lo-	8f#\	-lo-	8a\	-lo-
8A\J	.	.	.	8A\	-ru(m)	8c#X\	-ru(m)	8e\	-rum	8a\	-ru(m)
8D/L	.	8dd\L	8ff#\L	4r	.	4r	.	4r	.	4r	.
8C#X/J	6	8a\J	8ee\J	.	.	.	.	.	.	.	.
=7	=7	=7	=7	=7	=7	=7	=7	=7	=7	=7	=7
8D/L	.	8dd\L	8ff#\L	4r	.	4r	.	4r	.	4r	.
8AA/J	.	8cc#\J	8ee\J	.	.	.	.	.	.	.	.
*	*	*	*	*	*	*	*	*	*ij	*	*
8D\L	.	8a/L	8ff#\L	8D\	an-	8F#/	an-	8d\	an-	8a\	an-
8E\	.	8g/J	8ee\J	8E\	-ge-	8G/	-ge-	8c#\	-ge-	8g\	-ge-
!	!	!LO:LB:g=original	!	!	!	!	!	!	!	!	!
8F#\	.	8f#/L	8dd\L	8F#\	-lo-	8A\	-lo-	8d\	-lo-	8f#/	-lo-
8G\J	.	8g/J	8ee\J	8G\	-ru(m)	8B\	-ru(m)	8e,\	-rum	8a\	-ru(m)
*	*	*	*	*	*	*	*	*	*Xij	*	*
!LO:TX:a:t=P:mixed beam:problem	!	!	!	!	!	!	!	!	!	!	!
8A\L	.	4e/	8.cc#X\L	8.A\	gau-	8.A\	gau-	8.c#\	gau-	8.g/	gau-
8AA/J	4	.	.	.	.	.	.	.	.	.	.
.	3	.	16cc#\Jk	16A\	-di-	16A\	-di-	16c#\	-di-	16g/	-di-
=8	=8	=8	=8	=8	=8	=8	=8	=8	=8	=8	=8
4D/	.	4f#/	4dd\	4D/	-um	4A/	-um	4d,\	-um	4f#/	-um
8G\L	.	4r	4r	8G\	an-	8d\	an-	8g\	an-	8b\	an-
8F#\J	6	.	.	8F#\	-ge-	8d\	-ge-	8a\	-ge-	8a\	-ge-
8G\L	.	4r	4r	8G\	-lo-	8d\	-lo-	8g\	-lo-	8b\	-lo-
8D\	.	.	.	8D/	-ru(m)	8d\	-ru(m)	8f#\	-rum	8a\	-ru(m)
!	!	!	!LO:LB:g=original	!	!	!	!	!	!	!	!
8G\	.	8gg\L	8bb\L	4r	.	4r	.	4r	.	4r	.
8F#\J	6	8dd\J	8aa\J	.	.	.	.	.	.	.	.
!	!	!	!	!	!	!	!	!LO:LB:g=original	!	!	!
=9	=9	=9	=9	=9	=9	=9	=9	=9	=9	=9	=9
8G\L	.	8gg\L	8bb\L	4r	.	4r	.	4r	.	4r	.
8D\	.	8ff#\J	8aa\J	.	.	.	.	.	.	.	.
*	*	*	*	*	*	*	*ij	*	*ij	*	*ij
8G\	.	4r	4r	8G\	an-	8d\	an-	8g\	an-	8b\	an-
8F#\J	6	.	.	8F#\	-ge-	8d\	-ge-	8a\	-ge-	8a\	-ge-
!LO:LB:g=original	!	!	!	!	!	!	!	!	!	!	!
8G\L	.	4r	4r	8G\	-lo-	8d\	-lo-	8g\	-lo-	8b\	-lo-
8D\	.	.	.	8D/	-rum	8d\	-rum	8f#\	-rum	8a\	-rum
*	*	*	*	*	*	*	*Xij	*	*Xij	*	*Xij
8G\	.	8gg\L	8bb\L	4r	.	4r	.	4r	.	4r	.
8F#\J	.	8dd\J	8aa\J	.	.	.	.	.	.	.	.
!	!	!	!	!	!	!LO:LB:g=original	!	!	!	!	!
=10	=10	=10	=10	=10	=10	=10	=10	=10	=10	=10	=10
8G\L	.	8gg\L	8bb\L	4r	.	4r	.	4r	.	4r	.
8D\J	.	8ff#\J	8aa\J	.	.	.	.	.	.	.	.
!	!	!	!	!LO:LB:g=original	!	!	!	!	!	!	!
8GG/L	.	8gg\L	8bb\L	8GG/	ce-	8B\	Cel-	8g\	Cel-	8dd\	Cel-
8AA/	.	8cc#\J	8aa\J	8AA/	-la	8c\	-la	8f#\	-la	8cc\	-la
!	!	!	!	!	!	!	!	!	!	!LO:SIC:custos b:v	!
!	!	!	!	!	!	!	!	!	!	!LO:LB:g=original	!
8BB/	.	8b\L	8gg\L	8BB/	pu-	8d\	pu-	8g\	pu-	8b\	pu-
!	!	!	!	!LO:SIC:s=8Cn:v	!	!	!	!	!	!	!
8C/J	.	8cc#\J	8aa\J	8C#/	-ri-	8e\	-ri-	8a\	-ri-	8cc\	-ri-
!	!	!LO:TX:a:t=P:w źródle kropka pod nutą 4a; najprawdopodobniej poprawiana wysokość dźwieku przez skryptora:problem	!	!	!	!	!	!	!	!	!
4D/	4	4a/	4ff#\	4D/	-ta-	4d\	-ta-	4f#\	-ta-	4a\	-ta-
.	3	.	.	.	.	.	.	.	.	.	.
=11	=11	=11	=11	=11	=11	=11	=11	=11	=11	=11	=11
4GG/	.	4b\	4gg\	4GG/	-tis	4B\	-tis	4g,\	-tis	4g/	-tis
*	*	*	*	*	*ij	*	*	*	*ij	*	*
8GG/L	.	8gg\L	8bb\L	8GG/	ce-	8B\	Cel-	8g\	Cel-	8dd\	Cel-
!	!	!LO:SIC:s=8ccn:v	!	!	!	!	!	!	!	!	!
8AA/	6	8cc#\J	8aa\	8AA/	-la	8c\	-la	8f#\	-la	8cc\	-la
8BB/	5	8b\L	8gg\	8BB/	pu-	8d\	pu-	8g\	pu-	8b\	pu-
!	!	!LO:SIC:s=8ccn:v	!	!LO:SIC:s=8Cn:v	!	!	!	!	!	!	!
8C/J	.	8cc#\J	8aa\J	8C#/	-ri-	8e\	-ri-	8a\	-ri-	8cc\	-ri-
4D\	.	4a/	4ff#\	4D/	-ta-	4d\	-ta-	4f#\	-ta-	4a\	-ta-
=12	=12	=12	=12	=12	=12	=12	=12	=12	=12	=12	=12
!	!	!	!	!	!	!LO:TX:a:t=P:w źródle cauda nuty 4B po prawej stronie:problem	!	!	!	!	!
4GG/	.	4b/	4gg\	4GG/	-tis	4B\	-tis	4g\	-tis	4g/	-tis
*	*	*	*	*	*Xij	*	*	*	*Xij	*	*
!	!	!	!LO:TX:a:t=P:w źródle brak pauz:problem:pominięty fragment	!	!	!	!	!	!	!	!
4r	.	4r	4ryy	4r	.	4r	.	4r	.	4r	.
2r	.	2r	2ryy	2r	.	2r	.	2r	.	2r	.
=13||	=13||	=13	=13||	=13	=13	=13||	=13||	=13||	=13||	=13||	=13||
*M4/4	*	*M4/4	*M4/4	*M4/4	*	*M4/4	*	*M4/4	*	*M4/4	*
*met(c)	*	*met(c)	*met(c)	*met(c)	*	*met(c)	*	*met(c)	*	*met(c)	*
!	!	!	!	!LO:TX:a:Bi:t=Solamen\nRitonelo\nTC	!	!LO:TX:a:Bi:t=Solamen\nMerenti. TC.	!	!LO:TX:a:Bi:t=Solamen Cantus Tac	!	!	!
!LO:TX:a:Bi:t=ſolo:rj	!	!	!	!	!	!	!	!	!	!LO:TX:a:Bi:t=S.:rj	!
8G\L	.	00r	00r	1ryy	.	1ryy	.	1ryy	.	4r	.
8A\	.	.	.	.	.	.	.	.	.	.	.
8B\	.	.	.	.	.	.	.	.	.	8r	.
8G\J	.	.	.	.	.	.	.	.	.	8g/	ſo-
8F#\L	6	.	.	.	.	.	.	.	.	4dd\	-la-
8E\	.	.	.	.	.	.	.	.	.	.	.
8F#\	.	.	.	.	.	.	.	.	.	8dd\	-men
8D\J	.	.	.	.	.	.	.	.	.	8dd\	me-
=14	=14	=14	=14	=14	=14	=14	=14	=14	=14	=14	=14
8G\L	.	.	.	1ryy	.	1ryy	.	1ryy	.	8.b\	-ren-
8A\	.	.	.	.	.	.	.	.	.	.	.
.	.	.	.	.	.	.	.	.	.	16a\	-ti-
8B\	.	.	.	.	.	.	.	.	.	4g/	-um
8c\J	.	.	.	.	.	.	.	.	.	.	.
!LO:TX:a:t=P:mixed beam:problem	!	!	!	!	!	!	!	!	!	!	!
8d\L	.	.	.	.	.	.	.	.	.	2r	.
8c\	.	.	.	.	.	.	.	.	.	.	.
8d\	.	.	.	.	.	.	.	.	.	.	.
8D/J	4	.	.	.	.	.	.	.	.	.	.
.	3	.	.	.	.	.	.	.	.	.	.
!LO:LB:g=original	!	!	!	!	!	!	!	!	!	!	!
=15	=15	=15	=15	=15	=15	=15	=15	=15	=15	=15	=15
8G\L	.	.	.	1ryy	.	1ryy	.	1ryy	.	4r	.
8A\	.	.	.	.	.	.	.	.	.	.	.
8B\	.	.	.	.	.	.	.	.	.	8r	.
8G\J	.	.	.	.	.	.	.	.	.	8g/	ſo-
8F#\L	.	.	.	.	.	.	.	.	.	4dd\	-la-
8E\	.	.	.	.	.	.	.	.	.	.	.
8F#\	.	.	.	.	.	.	.	.	.	8dd\	-men
8D\J	.	.	.	.	.	.	.	.	.	8dd\	me-
!	!	!	!	!	!	!	!	!	!	!LO:LB:g=original	!
=16	=16	=16	=16	=16	=16	=16	=16	=16	=16	=16	=16
!LO:TX:a:t=P:mixed beam:problem	!	!	!	!	!	!	!	!	!	!	!
8G\L	.	.	.	1ryy	.	1ryy	.	1ryy	.	8.b\	-ren-
8BB/	.	.	.	.	.	.	.	.	.	.	.
.	.	.	.	.	.	.	.	.	.	16a\	-ti-
8C/	.	.	.	.	.	.	.	.	.	4g\	-um
8D/J	.	.	.	.	.	.	.	.	.	.	.
4GG/	.	.	.	.	.	.	.	.	.	4r	.
8F#\L	6	.	.	.	.	.	.	.	.	8a\	por-
8G\J	.	.	.	.	.	.	.	.	.	8b\	-t(us)
=17	=17	=17	=17	=17	=17	=17	=17	=17	=17	=17	=17
4A\	6	00r	00r	1ryy	.	1ryy	.	1ryy	.	16cc\LL	Vo-
.	.	.	.	.	.	.	.	.	.	16b\	.
.	.	.	.	.	.	.	.	.	.	16a\	.
.	.	.	.	.	.	.	.	.	.	16b\JJ	.
8r	.	.	.	.	.	.	.	.	.	8cc\L	.
16E\LL	6	.	.	.	.	.	.	.	.	16dd\L	.
16F#\JJ	.	.	.	.	.	.	.	.	.	16cc\JJ	.
4G\	.	.	.	.	.	.	.	.	.	16b\LL	.
.	.	.	.	.	.	.	.	.	.	16a\	.
.	.	.	.	.	.	.	.	.	.	16b\	.
.	.	.	.	.	.	.	.	.	.	16cc\JJ	.
8r	.	.	.	.	.	.	.	.	.	8b\L	.
8BB/	.	.	.	.	.	.	.	.	.	16cc\L	.
.	.	.	.	.	.	.	.	.	.	16b\JJ	.
=18	=18	=18	=18	=18	=18	=18	=18	=18	=18	=18	=18
8C/L	.	.	.	1ryy	.	1ryy	.	1ryy	.	16a\LL	.
.	.	.	.	.	.	.	.	.	.	16b\JJ	.
8GG/	.	.	.	.	.	.	.	.	.	(<16g/LL	-lup-
.	.	.	.	.	.	.	.	.	.	16a/JJ)	.
8D/	.	.	.	.	.	.	.	.	.	4f#/	-ta-
8DD/J	.	.	.	.	.	.	.	.	.	.	.
8GG/L	.	.	.	.	.	.	.	.	.	4g/	-tis
8C/	.	.	.	.	.	.	.	.	.	.	.
8D/	.	.	.	.	.	.	.	.	.	4r	.
8DD/J	.	.	.	.	.	.	.	.	.	.	.
=19	=19	=19	=19	=19	=19	=19	=19	=19	=19	=19	=19
4G\	.	.	.	1ryy	.	1ryy	.	1ryy	.	4r	.
8F#\L	6	.	.	.	.	.	.	.	.	8a\	por-
8G\J	.	.	.	.	.	.	.	.	.	8b\	-tus
4A\	6	.	.	.	.	.	.	.	.	16cc\LL	vo-
.	.	.	.	.	.	.	.	.	.	16b\	.
.	.	.	.	.	.	.	.	.	.	16a\	.
.	.	.	.	.	.	.	.	.	.	16b\JJ	.
8r	.	.	.	.	.	.	.	.	.	8cc\L	.
16E\LL	6	.	.	.	.	.	.	.	.	16dd\L	.
16F#\JJ	.	.	.	.	.	.	.	.	.	16cc\JJ	.
=20	=20	=20	=20	=20	=20	=20	=20	=20	=20	=20	=20
4G\	.	.	.	1ryy	.	1ryy	.	1ryy	.	16b\LL	.
.	.	.	.	.	.	.	.	.	.	16a\	.
.	.	.	.	.	.	.	.	.	.	16g\	.
.	.	.	.	.	.	.	.	.	.	16a\JJ	.
8r	.	.	.	.	.	.	.	.	.	8b\L	.
8BB/	.	.	.	.	.	.	.	.	.	16cc\L	.
.	.	.	.	.	.	.	.	.	.	16b\JJ	.
!LO:LB:g=original	!	!	!	!	!	!	!	!	!	!	!
8C/L	.	.	.	.	.	.	.	.	.	16a\LL	.
.	.	.	.	.	.	.	.	.	.	16b\JJ	.
!	!	!	!	!	!	!	!	!	!	!LO:SIC:custos g:v	!
!	!	!	!	!	!	!	!	!	!	!LO:LB:g=original	!
8GG/	.	.	.	.	.	.	.	.	.	(<16g/LL	-lup-
.	.	.	.	.	.	.	.	.	.	16a/JJ)	.
8D/	.	.	.	.	.	.	.	.	.	4f#/	-ta-
8DD/J	4	.	.	.	.	.	.	.	.	.	.
.	3	.	.	.	.	.	.	.	.	.	.
=21	=21	=21	=21	=21	=21	=21	=21	=21	=21	=21	=21
4GG/	.	00r	00r	1ryy	.	1ryy	.	1ryy	.	4g/	-tis
8D\L	.	.	.	.	.	.	.	.	.	8a\	pal-
8F#\J	.	.	.	.	.	.	.	.	.	8a\	-ma
8G\L	.	.	.	.	.	.	.	.	.	8b\	pa-
8F#\	6	.	.	.	.	.	.	.	.	8a\	-ti-
8G\	.	.	.	.	.	.	.	.	.	8.b\	-en-
8C\J	7	.	.	.	.	.	.	.	.	.	.
.	6	.	.	.	.	.	.	.	.	16a\	-ti-
=22	=22	=22	=22	=22	=22	=22	=22	=22	=22	=22	=22
!	!	!	!	!	!	!	!	!	!	!LO:TX:a:t=P:w źródle podłożenie tekstu mocno ściśnięte:problem	!
8D\L	.	.	.	1ryy	.	1ryy	.	1ryy	.	4a\	-ae
8E\	.	.	.	.	.	.	.	.	.	.	.
8F#\	.	.	.	.	.	.	.	.	.	4r	.
8D\J	.	.	.	.	.	.	.	.	.	.	.
!LO:TX:a:t=P:mixed beam:problem	!	!	!	!	!	!	!	!	!	!	!
8G\L	.	.	.	.	.	.	.	.	.	2r	.
8GG/	.	.	.	.	.	.	.	.	.	.	.
8BB/	.	.	.	.	.	.	.	.	.	.	.
8C/J	.	.	.	.	.	.	.	.	.	.	.
=23	=23	=23	=23	=23	=23	=23	=23	=23	=23	=23-	=23-
!	!	!	!	!	!	!	!	!	!	!LO:TX:a:t=P:w źródle podłożenie tekstu mocno ściśnięte:problem	!
4D\	.	.	.	1ryy	.	1ryy	.	1ryy	.	4r	.
8D\L	.	.	.	.	.	.	.	.	.	8b\	pal-
8F#\J	.	.	.	.	.	.	.	.	.	8b\	-ma
8G\L	.	.	.	.	.	.	.	.	.	8b\	pa-
8F#\	6	.	.	.	.	.	.	.	.	8a\	-ti-
8G\	.	.	.	.	.	.	.	.	.	8.b\	-en-
8C\J	7	.	.	.	.	.	.	.	.	.	.
.	6	.	.	.	.	.	.	.	.	16b\	-ti-
=24	=24	=24	=24	=24	=24	=24	=24	=24	=24	=24	=24
4D\	.	.	.	1ryy	.	1ryy	.	1ryy	.	4a\	-ae
8G\L	.	.	.	.	.	.	.	.	.	8dd\	ce-
8B\J	6	.	.	.	.	.	.	.	.	8dd\	-drus
4c\	6	.	.	.	.	.	.	.	.	16ee\LL	Ca-
.	.	.	.	.	.	.	.	.	.	16dd\	.
.	.	.	.	.	.	.	.	.	.	16cc\	.
.	.	.	.	.	.	.	.	.	.	16dd\JJ	.
8r	.	.	.	.	.	.	.	.	.	8ee\L	.
8A\	6	.	.	.	.	.	.	.	.	16dd\L	.
.	.	.	.	.	.	.	.	.	.	16cc\JJ	.
=25	=25	=25	=25	=25	=25	=25	=25	=25	=25	=25	=25
4B\	6	00r	00r	1ryy	.	1ryy	.	1ryy	.	16dd\LL	.
.	.	.	.	.	.	.	.	.	.	16cc\	.
.	.	.	.	.	.	.	.	.	.	16b\	.
.	.	.	.	.	.	.	.	.	.	16cc\JJ	.
!	!	!	!	!	!	!	!	!	!	!LO:SIC:custos dd:v	!
!	!	!	!	!	!	!	!	!	!	!LO:LB:g=original	!
8r	.	.	.	.	.	.	.	.	.	8dd\L	.
8G\	6	.	.	.	.	.	.	.	.	16cc\L	.
.	.	.	.	.	.	.	.	.	.	16b\JJ	.
4A\	6	.	.	.	.	.	.	.	.	16cc\LL	.
.	.	.	.	.	.	.	.	.	.	16b\	.
.	.	.	.	.	.	.	.	.	.	16a\	.
.	.	.	.	.	.	.	.	.	.	16b\JJ	.
8r	.	.	.	.	.	.	.	.	.	8cc\L	.
8F#\	6	.	.	.	.	.	.	.	.	16b\L	.
.	.	.	.	.	.	.	.	.	.	16a\JJ	.
!LO:LB:g=original	!	!	!	!	!	!	!	!	!	!	!
=26	=26	=26	=26	=26	=26	=26	=26	=26	=26	=26	=26
!LO:TX:a:t=P:mixed beam:problem	!	!	!	!	!	!	!	!	!	!	!
8G\L	.	.	.	1ryy	.	1ryy	.	1ryy	.	8b\	.
8C\	.	.	.	.	.	.	.	.	.	8cc\	-sti-
8D\	.	.	.	.	.	.	.	.	.	4a\	-ta-
8DD/J	4	.	.	.	.	.	.	.	.	.	.
.	3	.	.	.	.	.	.	.	.	.	.
8GG/L	.	.	.	.	.	.	.	.	.	4g/	-tis
8C/	.	.	.	.	.	.	.	.	.	.	.
8D/	.	.	.	.	.	.	.	.	.	4r	.
8DD/J	4	.	.	.	.	.	.	.	.	.	.
.	3	.	.	.	.	.	.	.	.	.	.
=27	=27	=27	=27	=27	=27	=27	=27	=27	=27	=27	=27
4GG/	.	.	.	1ryy	.	1ryy	.	1ryy	.	4r	.
8G\L	.	.	.	.	.	.	.	.	.	8dd\	ce-
8B\J	6	.	.	.	.	.	.	.	.	8dd\	-drus
4c\	6	.	.	.	.	.	.	.	.	16ee\LL	ca-
.	.	.	.	.	.	.	.	.	.	16dd\	.
.	.	.	.	.	.	.	.	.	.	16cc\	.
.	.	.	.	.	.	.	.	.	.	16dd\JJ	.
8r	.	.	.	.	.	.	.	.	.	8ee\L	.
8A\	6	.	.	.	.	.	.	.	.	16dd\L	.
.	.	.	.	.	.	.	.	.	.	16cc\JJ	.
=28	=28	=28	=28	=28	=28	=28	=28	=28	=28	=28	=28
4B\	6	.	.	1ryy	.	1ryy	.	1ryy	.	16dd\LL	.
.	.	.	.	.	.	.	.	.	.	16cc\	.
.	.	.	.	.	.	.	.	.	.	16b\	.
.	.	.	.	.	.	.	.	.	.	16cc\JJ	.
8r	.	.	.	.	.	.	.	.	.	8dd\L	.
8G\	6	.	.	.	.	.	.	.	.	16cc\L	.
.	.	.	.	.	.	.	.	.	.	16b\JJ	.
4A\	6	.	.	.	.	.	.	.	.	16cc\LL	.
.	.	.	.	.	.	.	.	.	.	16b\	.
.	.	.	.	.	.	.	.	.	.	16a\	.
.	.	.	.	.	.	.	.	.	.	16b\JJ	.
8r	.	.	.	.	.	.	.	.	.	8cc\L	.
8F#\	6	.	.	.	.	.	.	.	.	16b\L	.
.	.	.	.	.	.	.	.	.	.	16a\JJ	.
=29	=29	=29	=29-	=29	=29	=29	=29	=29	=29	=29	=29
!LO:TX:a:t=P:mixed beam:problem	!	!	!	!	!	!	!	!	!	!	!
8G\L	.	1rdd	2r	1ryy	.	1ryy	.	1ryy	.	8b\	.
8C\	.	.	.	.	.	.	.	.	.	8cc\	-sti-
8D\	.	.	.	.	.	.	.	.	.	4a\	-ta-
8DD/J	4	.	.	.	.	.	.	.	.	.	.
.	3	.	.	.	.	.	.	.	.	.	.
!	!	!	!LO:TX:a:Bi:t=ſolo	!	!	!	!	!	!	!	!
!	!	!	!LO:TX:b:Bi:t=ſolamen	!	!	!	!	!	!	!	!
4GG/	.	.	8dd\L	.	.	.	.	.	.	4g/	-tis
.	.	.	16dd\L	.	.	.	.	.	.	.	.
.	.	.	16dd\JJ	.	.	.	.	.	.	.	.
8r	.	.	8dd\L	.	.	.	.	.	.	4r	.
8F#\	.	.	8a\J	.	.	.	.	.	.	.	.
!	!	!	!	!	!	!	!	!	!	!LO:PB:g=original	!
=30	=30	=30-	=30	=30	=30	=30	=30	=30	=30	=30	=30
4G\	.	8dd\L	8b\L	1ryy	.	1ryy	.	1ryy	.	00r	.
.	.	16dd\L	16b\L	.	.	.	.	.	.	.	.
.	.	16dd\JJ	16b\JJ	.	.	.	.	.	.	.	.
8r	.	8dd\L	8b\L	.	.	.	.	.	.	.	.
8D/	.	8a\J	8f#\J	.	.	.	.	.	.	.	.
!	!	!LO:LB:g=original	!	!	!	!	!	!	!	!	!
8G\L	.	4b\	4g/	.	.	.	.	.	.	.	.
16G\L	.	.	.	.	.	.	.	.	.	.	.
16G\JJ	.	.	.	.	.	.	.	.	.	.	.
8G\L	.	16r	16r	.	.	.	.	.	.	.	.
.	.	16g/LL	16b\LL	.	.	.	.	.	.	.	.
!	!	!	!LO:SIC:s=16ccn:v	!	!	!	!	!	!	!	!
8B\J	6	16a/	16cc#\	.	.	.	.	.	.	.	.
.	.	16b/JJ	16dd\JJ	.	.	.	.	.	.	.	.
!LO:LB:g=original	!	!	!	!	!	!	!	!	!	!	!
=31	=31	=31	=31	=31	=31	=31	=31	=31	=31	=31	=31
!	!	!LO:SIC:s=8ccn:v	!	!	!	!	!	!	!	!	!
4c\	.	8cc#\L	8ee\L	1ryy	.	1ryy	.	1ryy	.	.	.
!	!	!LO:SIC:s=16ccn:v	!	!	!	!	!	!	!	!	!
.	.	16cc#\L	16ee\L	.	.	.	.	.	.	.	.
!	!	!LO:SIC:s=16ccn:v	!	!	!	!	!	!	!	!	!
.	.	16cc#\JJ	16ee\JJ	.	.	.	.	.	.	.	.
!	!	!LO:SIC:s=8ccn:v	!	!	!	!	!	!	!	!	!
8r	.	8cc#\L	8ee\L	.	.	.	.	.	.	.	.
!	!	!	!LO:SIC:s=8ccn:v	!	!	!	!	!	!	!	!
8A\	6	8a\J	8cc#\J	.	.	.	.	.	.	.	.
4B\	6	8b\L	8dd\L	.	.	.	.	.	.	.	.
.	.	16b\L	16dd\L	.	.	.	.	.	.	.	.
.	.	16b\JJ	16dd\JJ	.	.	.	.	.	.	.	.
8r	.	8b\L	8dd\L	.	.	.	.	.	.	.	.
8G\	6	8g\J	8b\J	.	.	.	.	.	.	.	.
!	!	!	!LO:LB:g=original	!	!	!	!	!	!	!	!
=32	=32	=32	=32	=32	=32	=32	=32	=32	=32	=32	=32
!	!	!	!LO:SIC:s=8ccn:v	!	!	!	!	!	!	!	!
4A\	6	8a/L	8cc#\L	1ryy	.	1ryy	.	1ryy	.	.	.
!	!	!	!LO:SIC:s=16ccn:v	!	!	!	!	!	!	!	!
.	.	16a/L	16cc#\L	.	.	.	.	.	.	.	.
!	!	!	!LO:SIC:s=16ccn:v	!	!	!	!	!	!	!	!
.	.	16a/JJ	16cc#\JJ	.	.	.	.	.	.	.	.
!	!	!	!LO:SIC:s=8ccn:v	!	!	!	!	!	!	!	!
8r	.	8a/L	8cc#\L	.	.	.	.	.	.	.	.
8F#\	.	8f#/J	8a\J	.	.	.	.	.	.	.	.
!LO:TX:a:t=P:mixed beam:problem	!	!	!	!	!	!	!	!	!	!	!
8G\L	.	8g/L	16b\LL	.	.	.	.	.	.	.	.
.	.	.	16dd\	.	.	.	.	.	.	.	.
!	!	!	!LO:SIC:s=16ccn:v	!	!	!	!	!	!	!	!
8C\	.	8g/J	16cc#\	.	.	.	.	.	.	.	.
.	.	.	16b\JJ	.	.	.	.	.	.	.	.
8D\	4	4f#/	8.a/L	.	.	.	.	.	.	.	.
.	3	.	.	.	.	.	.	.	.	.	.
8DD/J	.	.	.	.	.	.	.	.	.	.	.
.	.	.	16g/Jk	.	.	.	.	.	.	.	.
=33	=33	=33	=33	=33	=33	=33	=33	=33	=33	=33	=33
!LO:TX:a:t=P:mixed beam:problem	!	!	!	!	!	!	!	!	!	!	!
8GG/L	.	4g/	4g/	1ryy	.	1ryy	.	1ryy	.	.	.
16G\L	.	.	.	.	.	.	.	.	.	.	.
16G\JJ	.	.	.	.	.	.	.	.	.	.	.
8G\L	.	16r	16r	.	.	.	.	.	.	.	.
.	.	16g/LL	16b\LL	.	.	.	.	.	.	.	.
!	!	!	!LO:SIC:s=16ccn:v	!	!	!	!	!	!	!	!
8B\J	6	16a/	16cc#\	.	.	.	.	.	.	.	.
.	.	16b/JJ	16dd\JJ	.	.	.	.	.	.	.	.
!	!	!LO:SIC:s=8ccn:v	!	!	!	!	!	!	!	!	!
4c\	.	8cc#\L	8ee\L	.	.	.	.	.	.	.	.
!	!	!LO:SIC:s=16ccn:v	!	!	!	!	!	!	!	!	!
.	.	16cc#\L	16ee\L	.	.	.	.	.	.	.	.
!	!	!LO:SIC:s=16ccn:v	!	!	!	!	!	!	!	!	!
.	.	16cc#\JJ	16ee\JJ	.	.	.	.	.	.	.	.
!	!	!LO:SIC:s=8ccn:v	!	!	!	!	!	!	!	!	!
8r	.	8cc#\L	8ee\L	.	.	.	.	.	.	.	.
!	!	!	!LO:SIC:s=8ccn:v	!	!	!	!	!	!	!	!
8A\	6	8a\J	8cc#\J	.	.	.	.	.	.	.	.
=34	=34	=34	=34	=34	=34	=34	=34	=34	=34	=34	=34
4B\	6	8b\L	8dd\L	1ryy	.	1ryy	.	1ryy	.	0r	.
.	.	16b\L	16dd\L	.	.	.	.	.	.	.	.
.	.	16b\JJ	16dd\JJ	.	.	.	.	.	.	.	.
8r	.	8b\L	8dd\L	.	.	.	.	.	.	.	.
8G\	6	8a\J	8b\J	.	.	.	.	.	.	.	.
!	!	!	!LO:SIC:s=8ccn:v	!	!	!	!	!	!	!	!
4A\	6	8a/L	8cc#\L	.	.	.	.	.	.	.	.
!	!	!	!LO:SIC:s=16ccn:v	!	!	!	!	!	!	!	!
.	.	16a/L	16cc#\L	.	.	.	.	.	.	.	.
!	!	!	!LO:SIC:s=16ccn:v	!	!	!	!	!	!	!	!
.	.	16a/JJ	16cc#\JJ	.	.	.	.	.	.	.	.
8r	.	8a/L	8cc#\L	.	.	.	.	.	.	.	.
8F#\	.	8f#/J	8a\J	.	.	.	.	.	.	.	.
!	!	!LO:LB:g=original	!	!	!	!	!	!	!	!	!
=35	=35	=35	=35	=35	=35	=35	=35	=35	=35	=35	=35
!LO:TX:a:t=P:mixed beam:problem	!	!	!	!	!	!	!	!	!	!	!
8G\L	.	8g/L	16b\LL	1ryy	.	1ryy	.	1ryy	.	.	.
.	.	.	16dd\	.	.	.	.	.	.	.	.
!	!	!	!LO:SIC:s=16ccn:v	!	!	!	!	!	!	!	!
8C\	.	8g/J	16cc#\	.	.	.	.	.	.	.	.
.	.	.	16b\JJ	.	.	.	.	.	.	.	.
8D\	.	4f#/	8.a/L	.	.	.	.	.	.	.	.
8DD/J	4	.	.	.	.	.	.	.	.	.	.
.	3	.	16a/Jk	.	.	.	.	.	.	.	.
4GG/	.	4g/	4g/	.	.	.	.	.	.	.	.
4r	.	4r	4r	.	.	.	.	.	.	.	.
!	!	!	!	!LO:TX:a:t=P:w źródle ozdobna kreska taktowa &colon;||&colon;:problem	!	!	!	!	!	!	!
!LO:LB:g=original	!	!	!	!	!	!	!	!	!	!	!
=||	=||	=	=||	=||	=||	=||	=||	=||	=||	=||	=||
*M3/2	*	*M3/2	*M3/2	*M3/2	*	*M3/2	*	*M3/2	*	*M3/2	*
!LO:TX:a:i:t=Solo	!	!LO:TX:a:Bi:t=ſolo	!	!	!	!	!	!	!	!	!
!LO:TX:b:Bi:t=Terra es benedicta:dur=9h:ext=s:problem:text with extention lines	!	!LO:TX:b:B:t=Terra	!	!	!	!LO:TX:a:Bi:t=Terra es Benedicta.\nTC	!	!LO:TX:a:Bi:t=Terra eſ Bene	!	!LO:TX:a:B:t=Terra es\nT.C.	!
!	!	!LO:N:vis=0	!LO:N:vis=0	!	!	!	!	!	!	!	!
1G	.	0.r	0.r	2rBB	.	1.ryy	.	1.ryy	.	1.ryy	.
.	.	.	.	2G\	Ter-	.	.	.	.	.	.
2F#\	6	.	.	2D\	-ra	.	.	.	.	.	.
=36	=36	=36	=36	=36	=36	=36	=36	=36	=36	=36	=36
2G\	.	.	.	2G\	es	1.ryy	.	1.ryy	.	1.ryy	.
2C/	.	.	.	(>4A\	be-	.	.	.	.	.	.
.	.	.	.	4B\)	.	.	.	.	.	.	.
!	!	!	!	!LO:SIC:s=4cn:v	!	!	!	!	!	!	!
2D/	4	.	.	(>4c#\	-ne-	.	.	.	.	.	.
.	3	.	.	4d\)	.	.	.	.	.	.	.
=37	=37	=37-	=37-	=37	=37	=37	=37	=37	=37	=37	=37
2GG/	.	2r	2r	2B\	-dic-	1.ryy	.	1.ryy	.	1.ryy	.
!	!	!	!LO:SIC:s=2gg:v	!	!	!	!	!	!	!	!
2G\	.	2b/	2ff#\	2G\	-ta	.	.	.	.	.	.
!	!	!	!LO:SIC:s=2aa:v	!	!	!	!	!	!	!	!
2F#\	6\	2a/	2ff#\	2r	.	.	.	.	.	.	.
=	=	=	=	=	=	=	=	=	=	=	=
2GG/	.	2b/	2gg\	2r	.	1.ryy	.	1.ryy	.	1.ryy	.
!	!	!	!	!LO:LB:g=original	!	!	!	!	!	!	!
!	!	!	!	!LO:TX:a:t=P:problem:niepotrzebnie powtórzony fragment w postaci pauzy półnutowej	!	!	!	!	!	!	!
2ryy	.	2ryy	2ryy	2r	.	.	.	.	.	.	.
2G\	.	2d/	2g/	2G\	Ter-	.	.	.	.	.	.
2F#\	6	2r	2r	2D\	-ra	2ryy	.	2ryy	.	2ryy	.
=38	=38	=38	=38	=38	=38	=38	=38	=38	=38	=38	=38
!	!	!LO:N:vis=0	!LO:N:vis=0	!	!	!	!	!	!	!	!
2G\	.	0.r	0.r	2G\	eſ	1.ryy	.	1.ryy	.	1.ryy	.
2C/	.	.	.	(>4A\	be-	.	.	.	.	.	.
.	.	.	.	4B\)	.	.	.	.	.	.	.
!	!	!	!	!LO:SIC:s=4cn:v	!	!	!	!	!	!	!
2D/	.	.	.	(>4c#\	-ne-	.	.	.	.	.	.
.	.	.	.	4d\)	.	.	.	.	.	.	.
=39	=39	=39	=39	=39	=39	=39	=39	=39	=39	=39	=39
1GG	.	.	.	2B\	-dic-	1.ryy	.	1.ryy	.	1.ryy	.
.	.	.	.	2G\	-ta	.	.	.	.	.	.
2D\	.	.	.	4A\	et	.	.	.	.	.	.
.	.	.	.	4B\	sa-	.	.	.	.	.	.
=40	=40	=40	=40	=40	=40	=40	=40	=40	=40	=40	=40
2E\	6	1.r	1.r	4G\	-cer-	1.ryy	.	1.ryy	.	1.ryy	.
.	.	.	.	4F#\	.	.	.	.	.	.	.
2r	.	.	.	4E\	.	.	.	.	.	.	.
.	.	.	.	4F#\	.	.	.	.	.	.	.
2C#X/	6	.	.	(>4G\	-do-	.	.	.	.	.	.
.	.	.	.	4A\)	.	.	.	.	.	.	.
=41	=41	=41	=41-	=41	=41	=41	=41	=41	=41	=41	=41
2D\	.	2r	2r	2F#\	-ta-	1.ryy	.	1.ryy	.	1.ryy	.
2d\	.	2f#/	2dd\	2D\	-lis	.	.	.	.	.	.
2A\	.	2e/	2cc#i\	2r	.	.	.	.	.	.	.
!LO:LB:g=original	!	!	!LO:LB:g=original	!	!	!	!	!	!	!	!
=42	=42	=42	=42	=42	=42	=42	=42	=42	=42	=42	=42
1D	.	1f#	2dd\	2r	.	1.ryy	.	1.ryy	.	1.ryy	.
.	.	.	2d/	2r	.	.	.	.	.	.	.
2D\	.	2r	2r	4A\	et	.	.	.	.	.	.
.	.	.	.	4B\	sa-	.	.	.	.	.	.
=43	=43	=43	=43	=43	=43	=43	=43	=43	=43	=43	=43
!	!	!LO:N:vis=00	!LO:N:vis=00	!	!	!	!	!	!	!	!
2E\	.	00.r	00.r	4G\	-cer-	1.ryy	.	1.ryy	.	1.ryy	.
.	.	.	.	4F#\	.	.	.	.	.	.	.
2r	.	.	.	4E\	.	.	.	.	.	.	.
.	.	.	.	4F#\	.	.	.	.	.	.	.
2C/	.	.	.	(>4G\	-do-	.	.	.	.	.	.
.	.	.	.	4A\)	.	.	.	.	.	.	.
=44	=44	=44	=44	=44	=44	=44	=44	=44	=44	=44	=44
1D	.	.	.	2F#\	-ta-	1.ryy	.	1.ryy	.	1.ryy	.
.	.	.	.	2D\	-lis	.	.	.	.	.	.
!	!	!	!	!LO:LB:g=original	!	!	!	!	!	!	!
2F#\	6	.	.	4d\	ſan-	.	.	.	.	.	.
!	!	!	!	!LO:SIC:s=4cn:v	!	!	!	!	!	!	!
.	.	.	.	4c#\	-cta	.	.	.	.	.	.
=45	=45	=45	=45	=45	=45	=45	=45	=45	=45	=45	=45
2G\	.	.	.	2B\	at-	1.ryy	.	1.ryy	.	1.ryy	.
2F#\	6	.	.	(>4A\	-qu(ae)	.	.	.	.	.	.
.	.	.	.	4B\)	.	.	.	.	.	.	.
2E\	6	.	.	4G\	.	.	.	.	.	.	.
.	.	.	.	4A\	.	.	.	.	.	.	.
=46	=46	=46	=46	=46	=46	=46	=46	=46	=46	=46	=46
1.D	.	.	.	2.F#\	im-	1.ryy	.	1.ryy	.	1.ryy	.
.	.	.	.	4E\	-mu-	.	.	.	.	.	.
.	.	.	.	2D\	-nis	.	.	.	.	.	.
=47	=47	=47	=47	=47	=47	=47	=47	=47	=47	=47	=47
!	!	!LO:N:vis=00	!LO:N:vis=00	!	!	!	!	!	!	!	!
2D\	.	00.r	00.r	2D\	Cul-	1.ryy	.	1.ryy	.	1.ryy	.
2r	.	.	.	(>4E\	-pa	.	.	.	.	.	.
.	.	.	.	4F#\)	.	.	.	.	.	.	.
2E\	6	.	.	(>4G\	o-	.	.	.	.	.	.
.	.	.	.	4F#\)	.	.	.	.	.	.	.
=48	=48	=48	=48	=48	=48	=48	=48	=48	=48	=48	=48
2C#X/	6	.	.	4E\	-ri-	1.ryy	.	1.ryy	.	1.ryy	.
.	.	.	.	4E\	-gi-	.	.	.	.	.	.
2r	.	.	.	4F#\	-na-	.	.	.	.	.	.
.	.	.	.	4G\	.	.	.	.	.	.	.
2F#\	.	.	.	4A\	.	.	.	.	.	.	.
.	.	.	.	4G\	.	.	.	.	.	.	.
=49	=49	=49	=49	=49	=49	=49	=49	=49	=49	=49	=49
2D\	.	.	.	4F#\	.	1.ryy	.	1.ryy	.	1.ryy	.
.	.	.	.	4F#\	.	.	.	.	.	.	.
2r	.	.	.	4G\	.	.	.	.	.	.	.
.	.	.	.	4A\	.	.	.	.	.	.	.
2G\	.	.	.	4B\	.	.	.	.	.	.	.
.	.	.	.	4A\	.	.	.	.	.	.	.
=50	=50	=50	=50	=50	=50	=50	=50	=50	=50	=50	=50
1A	7	.	.	4G\	.	1.ryy	.	1.ryy	.	1.ryy	.
.	6	.	.	4F#\	.	.	.	.	.	.	.
.	.	.	.	1E	.	.	.	.	.	.	.
2AA/	4	.	.	.	.	.	.	.	.	.	.
.	3	.	.	.	.	.	.	.	.	.	.
!LO:LB:g=original	!	!	!	!	!	!	!	!	!	!	!
=51	=51	=51-	=51-	=51	=51	=51	=51	=51	=51	=51	=51
!	!	!LO:TX:a:t=P:w źródle pod nutami kropki; najprawdopodobniej staccato:problem	!	!	!	!	!	!	!	!	!
2D\	.	2ff#'<\	4aa\	2D\	-lis	1.ryy	.	1.ryy	.	1.ryy	.
.	.	.	4aa\	.	.	.	.	.	.	.	.
2r	.	2r	4ff#\	2r	.	.	.	.	.	.	.
.	.	.	4aa\	.	.	.	.	.	.	.	.
2D\	.	2ff#'<\	4ff#\	2r	.	.	.	.	.	.	.
.	.	.	4aa\	.	.	.	.	.	.	.	.
=52	=52	=52	=52	=52-	=52-	=52	=52	=52	=52	=52	=52
!	!	!	!	!LO:N:vis=00	!	!	!	!	!	!	!
2E\	6	2ee'<\	4gg\	00.r	.	1.ryy	.	1.ryy	.	1.ryy	.
.	.	.	4gg\	.	.	.	.	.	.	.	.
2r	.	2r	4ee\	.	.	.	.	.	.	.	.
.	.	.	4gg\	.	.	.	.	.	.	.	.
2E\	6	2ee\	4ee\	.	.	.	.	.	.	.	.
.	.	.	4gg\	.	.	.	.	.	.	.	.
=53	=53	=53	=53	=53	=53	=53	=53	=53	=53	=53	=53
2D\	.	4dd'<\	2ff#\	.	.	1.ryy	.	1.ryy	.	1.ryy	.
.	.	4dd'<\	.	.	.	.	.	.	.	.	.
2r	.	4b'<\	2r	.	.	.	.	.	.	.	.
.	.	4dd'<\	.	.	.	.	.	.	.	.	.
2D\	.	4b'<\	2ff#\	.	.	.	.	.	.	.	.
.	.	4dd'<\	.	.	.	.	.	.	.	.	.
=54	=54	=54	=54	=54	=54	=54	=54	=54	=54	=54	=54
!	!	!LO:SIC:s=4ccn:v	!	!	!	!	!	!	!	!	!
2AA/	.	4cc#\	2ee\	.	.	1.ryy	.	1.ryy	.	1.ryy	.
!	!	!LO:SIC:s=4ccn:v	!	!	!	!	!	!	!	!	!
.	.	4cc#\	.	.	.	.	.	.	.	.	.
!	!	!LO:LB:g=original	!	!	!	!	!	!	!	!	!
2r	.	4a'<\	2r	.	.	.	.	.	.	.	.
!	!	!LO:SIC:s=4ccn:v	!	!	!	!	!	!	!	!	!
.	.	4cc#'<\	.	.	.	.	.	.	.	.	.
2AA/	4	4a'<\	2ee\	.	.	.	.	.	.	.	.
!	!	!LO:SIC:s=4ccn:v	!	!	!	!	!	!	!	!	!
.	3	4cc#'<\	.	.	.	.	.	.	.	.	.
=55	=55	=55	=55	=55	=55	=55	=55	=55	=55	=55	=55
2D\	.	2dd'<\	4dd\	.	.	1.ryy	.	1.ryy	.	1.ryy	.
.	.	.	4dd\	.	.	.	.	.	.	.	.
2r	.	2r	4b\	.	.	.	.	.	.	.	.
.	.	.	4dd\	.	.	.	.	.	.	.	.
2G\	6	2b'<\	4b\	.	.	.	.	.	.	.	.
.	.	.	4dd\	.	.	.	.	.	.	.	.
=56	=56	=56	=56	=56	=56	=56	=56	=56	=56	=56	=56
!	!	!	!	!LO:N:vis=0	!	!	!	!	!	!	!
2A\	.	2a/	4cc#\	0.r	.	1.ryy	.	1.ryy	.	1.ryy	.
.	.	.	4cc#\	.	.	.	.	.	.	.	.
2r	.	2r	4a\	.	.	.	.	.	.	.	.
.	.	.	4cc#\	.	.	.	.	.	.	.	.
2A\	.	2a/	4a\	.	.	.	.	.	.	.	.
.	.	.	4cc#\	.	.	.	.	.	.	.	.
=57	=57	=57	=57	=57	=57	=57	=57	=57	=57	=57	=57
2G\	.	4g/	2b\	.	.	1.ryy	.	1.ryy	.	1.ryy	.
.	.	4g/	.	.	.	.	.	.	.	.	.
2r	.	4d/	2r	.	.	.	.	.	.	.	.
.	.	4g/	.	.	.	.	.	.	.	.	.
2G\	.	4d/	2b\	.	.	.	.	.	.	.	.
.	.	4g/	.	.	.	.	.	.	.	.	.
=58	=58	=58	=58	=58	=58	=58	=58	=58	=58	=58	=58
2D\	.	4f#/	2a/	1.r	.	1.ryy	.	1.ryy	.	1.ryy	.
.	.	4f#/	.	.	.	.	.	.	.	.	.
2r	.	4d/	2r	.	.	.	.	.	.	.	.
.	.	4f#/	.	.	.	.	.	.	.	.	.
2D\	.	4d/	2a/	.	.	.	.	.	.	.	.
.	.	4f#/	.	.	.	.	.	.	.	.	.
!LO:PB:g=original	!	!	!	!LO:LB:g=original	!	!	!	!	!	!	!
=59	=59	=59	=59	=59	=59	=59	=59	=59	=59	=59	=59
2GG/	.	2g/	2g/	2G\	Cul-	1.ryy	.	1.ryy	.	1.ryy	.
2r	.	2r	2r	4A\	-pa	.	.	.	.	.	.
.	.	.	.	4B\	o-	.	.	.	.	.	.
!	!	!	!	!LO:SIC:s=4cn:v	!	!	!	!	!	!	!
2A\	6	2r	2r	4c#\	-ri-	.	.	.	.	.	.
.	.	.	.	4B\	-gi-	.	.	.	.	.	.
=60	=60	=60	=60	=60	=60	=60	=60	=60	=60	=60	=60
!	!	!LO:N:vis=0	!LO:N:vis=0	!	!	!	!	!	!	!	!
2F#\	6	0.r	0.r	4A\	-na-	1.ryy	.	1.ryy	.	1.ryy	.
.	.	.	.	4A\	.	.	.	.	.	.	.
2r	.	.	.	4B\	.	.	.	.	.	.	.
!	!	!	!	!LO:SIC:s=4cn:v	!	!	!	!	!	!	!
.	.	.	.	4c#\	.	.	.	.	.	.	.
2B\	6	.	.	4d\	.	.	.	.	.	.	.
!	!	!	!	!LO:SIC:s=4cn:v	!	!	!	!	!	!	!
.	.	.	.	4c#\	.	.	.	.	.	.	.
=61	=61	=61	=61	=61	=61	=61	=61	=61	=61	=61	=61
2G\	6	.	.	4B\	.	1.ryy	.	1.ryy	.	1.ryy	.
.	.	.	.	4B\	.	.	.	.	.	.	.
!	!	!	!	!LO:SIC:s=4cn:v	!	!	!	!	!	!	!
2r	.	.	.	4c#\	.	.	.	.	.	.	.
.	.	.	.	4d\	.	.	.	.	.	.	.
2c\	.	.	.	4e\	.	.	.	.	.	.	.
.	.	.	.	4d\	.	.	.	.	.	.	.
=62	=62	=62	=62	=62	=62	=62	=62	=62	=62	=62	=62
!	!	!	!	!LO:SIC:s=4cn:v	!	!	!	!	!	!	!
4d\	.	1.r	1.r	4c#\	.	1.ryy	.	1.ryy	.	1.ryy	.
4c\	.	.	.	4B\	.	.	.	.	.	.	.
2d\	4	.	.	1A	.	.	.	.	.	.	.
.	3	.	.	.	.	.	.	.	.	.	.
2D/	.	.	.	.	.	.	.	.	.	.	.
=63	=63	=63-	=63-	=63	=63	=63	=63	=63	=63	=63	=63
2GG/	.	2b\	4dd\	2G\	-lis	1.ryy	.	1.ryy	.	1.ryy	.
.	.	.	4dd\	.	.	.	.	.	.	.	.
2r	.	2r	4b\	2r	.	.	.	.	.	.	.
.	.	.	4dd\	.	.	.	.	.	.	.	.
2G\	.	2b\	4b\	2r	.	.	.	.	.	.	.
.	.	.	4dd\	.	.	.	.	.	.	.	.
!	!	!	!LO:LB:g=original	!	!	!	!	!	!	!	!
=64	=64	=64	=64	=64-	=64-	=64	=64	=64	=64	=64	=64
!	!	!	!	!LO:N:vis=00	!	!	!	!	!	!	!
2A\	7	2a/	4cc#\	00.r	.	1.ryy	.	1.ryy	.	1.ryy	.
.	.	.	4cc#\	.	.	.	.	.	.	.	.
2r	.	2r	4a\	.	.	.	.	.	.	.	.
.	.	.	4cc#\	.	.	.	.	.	.	.	.
2A\	6	2a/	4a\	.	.	.	.	.	.	.	.
.	.	.	4cc#\	.	.	.	.	.	.	.	.
=65	=65	=65	=65	=65	=65	=65	=65	=65	=65	=65	=65
2G\	.	4g/	2b\	.	.	1.ryy	.	1.ryy	.	1.ryy	.
.	.	4g/	.	.	.	.	.	.	.	.	.
2r	.	4d/	2r	.	.	.	.	.	.	.	.
.	.	4g/	.	.	.	.	.	.	.	.	.
2G\	.	4d/	2b\	.	.	.	.	.	.	.	.
.	.	4g/	.	.	.	.	.	.	.	.	.
!	!	!LO:LB:g=original	!	!	!	!	!	!	!	!	!
=66	=66	=66	=66	=66	=66	=66	=66	=66	=66	=66	=66
2D\	.	4f#/	2a/	.	.	1.ryy	.	1.ryy	.	1.ryy	.
.	.	4f#/	.	.	.	.	.	.	.	.	.
2r	.	4d/	2r	.	.	.	.	.	.	.	.
.	.	4f#/	.	.	.	.	.	.	.	.	.
2D\	4	4d/	2a/	.	.	.	.	.	.	.	.
.	3	4f#/	.	.	.	.	.	.	.	.	.
=67	=67	=67	=67	=67	=67	=67	=67	=67	=67	=67	=67
1.GG	.	1.g	1.g	.	.	1.ryy	.	1.ryy	.	1.ryy	.
!LO:LB:g=original	!	!	!	!	!	!LO:LB:g=original	!	!LO:LB:g=original	!	!	!
=68||	=68||	=68	=68||	=68-	=68-	=68||	=68||	=68||	=68||	=68||	=68||
*M4/4	*	*M4/4	*M4/4	*M2/2	*	*M4/4	*	*M2/2	*	*M4/4	*
*met(c)	*	*met(c)	*met(c)	*met(c|)	*	*met(c)	*	*met(c|)	*	*met(c)	*
!	!	!	!	!LO:TX:a:t=P:w źródle metrum alla breve:problem	!	!	!	!LO:TX:a:t=P:w źródle metrum alla breve:problem	!	!	!
!LO:TX:a:Bi:t=Solo:rj	!	!	!	!	!	!	!	!LO:TX:a:Bi:t=canto	!	!LO:TX:a:Bi:t=ſolo	!
!LO:TX:b:Bi:t=Adagio	!	!	!	!	!	!	!	!	!	!	!
4E\	.	0r	0r	0r	.	0r	.	0r	.	4r	.
4D#X\	6	.	.	.	.	.	.	.	.	8r	.
.	.	.	.	.	.	.	.	.	.	8b\	Ci-
2E\	.	.	.	.	.	.	.	.	.	4g/	-vi-
.	.	.	.	.	.	.	.	.	.	8g\	-tas
.	.	.	.	.	.	.	.	.	.	8b\	al-
=69	=69	=69	=69	=69	=69	=69	=69	=69	=69	=69	=69
2E\	.	.	.	.	.	.	.	.	.	8.e/	-tis-
.	.	.	.	.	.	.	.	.	.	16e/	-si-
.	.	.	.	.	.	.	.	.	.	4e/	-mi
2C#X/	6	.	.	.	.	.	.	.	.	4r	.
.	.	.	.	.	.	.	.	.	.	8ee\	por-
.	.	.	.	.	.	.	.	.	.	8dd\	-ta
=70	=70	=70	=70	=70	=70	=70	=70	=70	=70	=70	=70
2F#X\	5	1r	1r	1r	.	1r	.	1r	.	4cc#X\	por-
.	6	.	.	.	.	.	.	.	.	8cc#\	-ta
.	.	.	.	.	.	.	.	.	.	8cc#\	o-
8G\L	7	.	.	.	.	.	.	.	.	(>16ee\LL	-ri-
.	6	.	.	.	.	.	.	.	.	16ff#\JJ)	.
8E\J	.	.	.	.	.	.	.	.	.	(>16dd\LL	-gen-
.	.	.	.	.	.	.	.	.	.	16ee\JJ)	.
4F#\	# 4	.	.	.	.	.	.	.	.	4cc#X\	-ta-
.	x 3	.	.	.	.	.	.	.	.	.	.
!	!	!	!	!	!	!	!	!	!	!LO:LB:g=original	!
=71	=71	=71-	=71-	=71	=71	=71	=71	=71	=71	=71	=71
!	!	!	!	!LO:TX:a:t=P:problem:pominięty fragment	!	!LO:TX:a:t=P:problem:pominięty fragment	!	!LO:TX:a:t=P:problem:pominięty fragment	!	!	!
4BB/	.	2r	4r	1ryy	.	1ryy	.	1ryy	.	4b\	-lis
!	!	!	!LO:TX:a:t=P:problem:pominięty fragment	!	!	!	!	!	!	!	!
4r	.	.	2.ryy	.	.	.	.	.	.	4r	.
!	!	!LO:TX:a:t=P:problem:pominięty fragment	!	!	!	!	!	!	!	!	!
2r	.	2ryy	.	.	.	.	.	.	.	2r	.
.	.	.	.	.	.	.	.	.	.	.	.
!	!	!LO:TX:a:t=P:w źródle ozdobna kreska końcowa &colon;||&colon;:problem	!	!	!	!	!	!	!	!	!
=72||	=72||	=72||	=72||	=72||	=72||	=72||	=72||	=72||	=72||	=72||	=72||
*M4/4	*	*M4/4	*M4/4	*M2/2	*	*M4/4	*	*M4/4	*	*M4/4	*
*met(c)	*	*met(c)	*met(c)	*met(c|)	*	*met(c)	*	*met(c)	*	*met(c)	*
!LO:TX:a:Bi:t=Tutti	!	!LO:TX:a:Bi:t=Tutti	!	!	!	!	!	!	!	!	!
!	!	!LO:TX:b:Bi:t=Inte eſt Omnis grati(a):dur=10qe:ext=s:problem:text with extention lines	!	!	!	!	!	!	!	!	!
!	!	!	!	!LO:TX:a:t=P:w źródle metrum alla breve:problem	!	!	!	!	!	!	!
!	!	!	!LO:TX:a:t=P:mixed beam:problem	!	!	!	!	!	!	!	!
4GG/	.	8d/L	8g/L	4r	.	4r	.	4r	.	4r	.
.	.	8g/	8dd\	.	.	.	.	.	.	.	.
8r	.	8g/	8dd\	8r	.	8r	.	8r	.	8r	.
!	!	!	!	!LO:LB:g=original	!	!	!	!	!	!	!
8D\	.	8f#/J	8a\J	8D\	in	8d\	in	8d\	In-	8a\	in
!LO:TX:a:t=P:mixed beam:problem	!	!	!	!	!	!	!	!	!	!	!
8GG/L	.	4g/	4b\	8G\	te	8B\	te	8d\	-te	8b\	te
8G\	.	.	.	8G\	eſt	8B\	eſt	8d\	est	8b\	eſt
8G\	.	4r	4r	8G\	om-	8B\	om-	8d\	om-	8b\	om-
8F#\J	6	.	.	8F#\	-nis	8A\	-nis	8d\	-nis	8a\	-nis
=73	=73	=73	=73	=73	=73	=73	=73	=73	=73	=73	=73
4G\	.	8d/L	8b\L	16G\	gra-	16G/	gra-	16d\	gra-	16b\	gra-
.	.	.	.	16G\	-ti-	16G/	-ti-	16d\	-ti-	16b\	-ti-
.	.	8g/	8dd\	8G\	-a	8G/	-a	8d\	-a.	8b\	-a
8r	.	8g/	8dd\	8r	.	8r	.	8r	.	8r	.
*	*	*	*	*	*	*	*	*	*ij	*	*
8D\	.	8f#/J	8a\J	8D\	in	8d\	in	8d\	In-	8a\	in
8G\L	.	4g/	4b\	8G\	te	8B\	te	8d\	-te	8b\	te
8G\	.	.	.	8G\	eſt	8B\	eſt	8d\	est	8b\	eſt
8G\	.	4r	4r	8G\	om-	8B\	om-	8d\	om-	8b\	om-
8F#\J	6	.	.	8F#\	-nis	8A\	-nis	8d\	-nis	8a\	-nis
!LO:LB:g=original	!	!	!	!	!	!	!	!	!	!	!
=74	=74	=74	=74	=74	=74	=74	=74	=74	=74	=74	=74
!LO:TX:a:t=P:mixed beam:problem	!	!	!	!	!	!	!	!	!	!	!
8G\L	.	4r	4r	16G\	gra-	16G/	gra-	16d\	gra-	16b\	gra-
.	.	.	.	16G\	-ti-	16G/	-ti-	16d\	-ti-	16b\	-ti-
8G\	.	.	.	8G\	-a	8G/	-a	8d,\	-a.	8b\	-a
*	*	*	*	*	*	*	*	*	*Xij	*	*
!	!	!	!	!	!	!	!	!LO:LB:g=original	!	!LO:LB:g=original	!
8BB/	.	8dd\L	8gg\L	8BB/	vir-	8B\	vir-	8g\	Vir-	8dd\	vir-
8BB/J	.	8dd\J	8gg\J	8BB/	-go	8d\	-go	8g\	-go	8dd\	-go
!	!	!	!	!	!	!LO:TX:a:t=P:w źródle po 'vir-go' oryginalne łamanie sytemu oraz doklejony jeden system oznaczony odpowiednio 'vi-de':problem	!	!	!	!	!
!	!	!	!	!	!	!LO:LB:g=original	!	!	!	!	!
8C/L	.	16ee\LL	8gg\L	8D/	sin-	8e\	sin-	8g\	Sin-	8cc\	Sin-
.	.	16dd\	.	.	.	.	.	.	.	.	.
!	!	!	!	!	!	!LO:TX:a:t=P:w źródle dźwięk nieczytelny:problem	!	!	!	!	!
!	!	!LO:SIC:s=16ccn:v	!	!LO:SIC:s=8Cn:v	!	!LO:SIC:s=8e:v	!	!	!	!	!
8C/J	.	16cc#\	8gg\J	8C#/	-gu-	8ryy	-gu-	8g\	-gu-	8b\	-gu-
.	.	16b\JJ	.	.	.	.	.	.	.	.	.
4D/	.	8a/L	4ff#\	4D/	-la-	4d\	-la-	(>8g\L	-la-	4a\	-la-
.	.	8a/J	.	.	.	.	.	8f#\J)	.	.	.
=75	=75	=75	=75	=75	=75	=75	=75	=75	=75	=75	=75
!	!	!LO:TX:b:Bi:t=Verte Citisſimo	!	!	!	!	!	!	!	!	!
4GG/	.	8b\L	8gg\L	4GG/	-ris	4B\	-ris	4g\	-ris	4g/	-ris
.	.	8ff#\	8aa\	.	.	.	.	.	.	.	.
8r	.	8ff#\	8aa\	8r	.	8r	.	8r	.	8r	.
!	!	!	!	!LO:PB:g=original	!	!	!	!	!	!	!
8AA/	.	8cc#X\J	8ee\J	8AA/	in	8c#X\	in	8e\	in-	8a\	in
8D/L	.	4dd\	4ff#\	8D/	te	8d\	te	8f#\	-te	8a\	te
8D/	.	.	.	8D/	est	8A\	est	8f#\	est	8a\	eſt
8D/	.	4r	4r	8D/	om-	8d\	om-	8f#\	om-	8a\	om-
8C#X/J	6	.	.	8C#X/	-nis	8e\	-nis	8e\	-nis	8a\	-nis
!	!	!LO:PB:g=original	!	!	!	!	!	!	!	!	!
=76	=76	=76	=76	=76	=76	=76	=76	=76	=76	=76	=76
4D/	.	8dd\L	8ff#\L	16D/	gra-	16d\	gra-	16f#\	gra-	16a\	gra-
.	.	.	.	16D/	-ti-	16d\	-ti-	16f#\	-ti-	16a\	-ti-
.	.	8ff#\	8aa\	8D/	-a	8d\	-a	8f#\	-a	8a\	-a
8r	.	8ff#\	8aa\	8r	.	8r	.	8r	.	8r	.
*	*	*	*	*	*ij	*	*	*	*	*	*
8AA/	.	8cc#X\J	8ee\J	8AA/	in	8c#X\	in	8e\	in-	8a\	in
8D/L	.	4dd\	4ff#\	8D/	te	8d\	te	8f#\	-te	8a\	te
8D/	.	.	.	8D/	est	8A\	est	8f#\	eſt	8a\	eſt
8D/	.	4r	4r	8D/	om-	8d\	om-	8f#\	om-	8a\	om-
8C#X/J	.	.	.	8C#X/	-nis	8e\	-nis	8e\	-nis	8a\	-nis
!	!	!	!LO:LB:g=original	!	!	!	!	!	!	!LO:LB:g=original	!
=77	=77	=77	=77	=77	=77	=77	=77	=77	=77	=77	=77
8D\L	.	4r	4r	16D/	gra-	16d\	gra-	16f#\	gra-	16a\	gra-
.	.	.	.	16D/	-ti-	16d\	-ti-	16f#\	-ti-	16a\	-ti-
!	!	!	!	!LO:N:vis=16	!	!	!	!	!	!	!
8D\	.	.	.	8D,/	-a	8d\	-a	8f#,\	-a	8a\	-a
*	*	*	*	*	*Xij	*	*	*	*	*	*
!	!	!	!	!	!	!	!	!LO:LB:g=original	!	!	!
8F#\	6	8dd\L	8aa\L	8F#\	vir-	8A\	Vir-	8d\	vir-	8a\	Vir-
8F#\J	.	8ff#\J	8aa\J	8F#\	-go	8d\	-go	8d\	-go	8a\	-go
!LO:TX:a:t=P:mixed beam:problem	!	!	!	!	!	!	!	!	!	!	!
8G\L	.	8gg\L	16bb\LL	8G\	sin-	8d\	sin-	8d\	sin-	8b\	Sin-
.	.	.	16aa\	.	.	.	.	.	.	.	.
8G\	.	8b\J	16gg\	8G\	-gu-	8f#\	-gu-	8d\	-gu-	8b\	-gu-
.	.	.	16ff#\JJ	.	.	.	.	.	.	.	.
8A\	.	8.cc#X\L	16ee\LL	4A\	-la-	4e\	-la-	4c#X\	-la-	4a\|	-la-
.	.	.	16gg\	.	.	.	.	.	.	.	.
8AA/J	4	.	16ff#\	.	.	.	.	.	.	.	.
.	3	16cc#\Jk	16ee\JJ	.	.	.	.	.	.	.	.
!	!	!	!	!	!	!LO:TX:a:t=vi	!	!	!	!	!
!	!	!	!	!	!	!LO:LB:g=original	!	!	!	!	!
=78	=78	=78	=78	=78	=78	=78	=78	=78	=78	=78	=78
!	!	!	!	!	!	!LO:TX:a:t=P:w źródle przed 'de' skreślony takt; obok znajduje się 'C', które najprawdopodobniej oznacza metrum:problem	!	!	!	!	!
!	!	!	!	!	!	!LO:TX:a:t=de	!	!	!	!	!
!	!	!	!	!	!	!LO:SIC:o=M4/4 met(c):v	!	!	!	!	!
!	!	!LO:TX:a:t=P:mixed beam:problem	!	!	!	!	!	!	!	!	!
4D/	.	8dd\L	8dd\L	4D/	-ris	4d\	-ris	4d\	-ris	4a\	-ris
.	.	8g/	8dd\	.	.	.	.	.	.	.	.
!	!	!	!	!	!	!LO:TX:a:t=P:w źródle skreślona pauza ćwierćnutowa poprawiona na pauze ósemkową:problem	!	!	!	!	!
8r	.	8g/	8dd\	8r	.	8r	.	8r	.	8r	.
8D/	.	8f#/J	8a\J	8D/	in	8d\	in-	8d\	in-	8a\	in
8G\L	.	4g/	4b\	8G\	te	8B\	-te	8d\	-te	8b\	te
8G\	.	.	.	8G\	est	8B\	eſt	8d\	eſt	8b\	eſt
8G\	.	4r	4r	8G\	om-	8B\	om-	8d\	om-	8b\	om-
8F#\J	6	.	.	8F#\	-nis	8A\	-nis	8d\	-nis	8a\	-nis
!LO:LB:g=original	!	!	!	!	!	!	!	!	!	!	!
=79	=79	=79	=79	=79	=79	=79	=79	=79	=79	=79	=79
4G\	.	8d/L	8b\L	16G\	gra-	16G/	gra-	16d\	gra-	16b\	gra-
.	.	.	.	16G\	-ti-	16G/	-ti-	16d\	-ti-	16b\	-ti-
.	.	8g/	8dd\	8G\	-a	8G/	-a	8d\	-a	8b\	-a
!	!	!	!	!LO:LB:g=original	!	!	!	!	!	!	!
!	!	!	!	!LO:TX:a:t=P:problem:pominięty fragment; brak pauzy ósemkowej	!	!	!	!	!	!	!
8r	.	8g/	8dd\	8ryy	.	8r	.	8r	.	8r	.
8D\	.	8f#/J	8a\J	8D/	in	8d\	in-	8d\	in-	8a\	in
8G\L	.	4g/	4b\	8G\	te	8B\	-te	8d\	-te	8b\	te
!	!	!	!	!	!	!	!	!	!	!LO:SIC:custos b:v	!
!	!	!	!	!	!	!	!	!	!	!LO:LB:g=original	!
8G\	.	.	.	8G\	eſt	8B\	est	8d\	eſt	8b\	eſt
8G\	.	4r	4r	8G\	om-	8B\	om-	8d\	om-	8b\	om-
8F#\J	6	.	.	8F#\	-nis	8A\	-nis	8d\	-nis	8a\	-nis
=80	=80	=80	=80	=80	=80	=80	=80	=80	=80	=80	=80
!LO:TX:a:t=P:mixed beam:problem	!	!	!	!	!	!	!	!	!	!	!
8G\L	.	4r	4r	16G\	gra-	16G/	gra-	16d\	gra-	16b\	gra-
.	.	.	.	16G\	-ti-	16G/	-ti-	16d\	-ti-	16b\	-ti-
8G\	.	.	.	8G\	-a	8G/	-a	8d\	-a	8b\	-a
8BB/	.	8dd\L	8gg\L	8BB/	vir-	8B\	vir-	8g\	Vir-	8dd\	Vir-
!	!	!	!	!	!	!LO:LB:g=original	!	!LO:LB:g=original	!	!	!
8BB/J	.	8dd\J	8gg\J	8BB/	-go	8d\	-go	8g\	-go	8dd\	-go
!	!	!	!	!LO:SIC:s=8Cn:v	!	!	!	!	!	!	!
8C/L	.	8ee\L	8gg\L	8C#/	sin-	8e\	Sin-	8g\	Sin-	8cc\	Sin-
!	!	!LO:SIC:s=8ccn:v	!	!LO:SIC:s=8Cn:v	!	!	!	!	!	!	!
8C/J	.	8cc#\J	8gg\J	8C#/	-gu-	8e\	-gu-	8g\	-gu-	8b\	-gu-
4D/	.	8dd\L	4ff#\	4D/	-la-	4d\	-la-	4f#\	-la-	4a\	-la-
.	.	8a\J	.	.	.	.	.	.	.	.	.
=81	=81	=81	=81	=81	=81	=81	=81	=81	=81	=81	=81
!	!	!	!	!	!	!	!	!LO:N:vis=8	!	!	!
4GG/	.	4b\	4gg\	4GG/	-ris	4B\	-ris	4g\	-ris	4g/	-ris
8BB/L	.	8dd\L	8gg\L	8BB/	vir-	8B\	Vir-	8g\	Vir-	8dd\	Vir-
8BB/J	.	8dd\J	8gg\J	8BB/	-go	8d\	-go	8g\	-go	8dd\	-go
!	!	!	!	!LO:SIC:s=8Cn:v	!	!	!	!	!	!	!
8C/L	.	8ee\L	8gg\L	8C#/	sin-	8e\	sin-	8g\	Sin-	8cc\	sin-
!	!	!LO:SIC:s=8ccn:v	!	!LO:SIC:s=8Cn:v	!	!	!	!	!	!	!
8C/J	.	8cc#\J	8gg\J	8C#/	-gu-	8e\	-gu-	8g\	-gu-	8b\	-gu-
4D/	.	8dd\L	4ff#\	4D/	-la-	4d\	-la-	4f#\	-la-	4a/	-la-
.	.	8a\J	.	.	.	.	.	.	.	.	.
!	!	!LO:TX:b:Bi:t=Finiſ	!	!	!	!	!	!	!	!	!
=82	=82	=82	=82	=82	=82	=82	=82	=82	=82	=82	=82
4GG/	.	4b\	4gg\	4GG/	-ris	4B\	-ris	4g\	-ris	4g/	-ris
4r	.	4r	4r	4r	.	4r	.	4r	.	4r	.
2r	.	2r	2r	2r	.	2r	.	2r	.	2r	.
!	!	!LO:TX:a:t=P:w źródle niewidczna keska końcowa:problem	!	!	!	!	!	!	!	!	!
!LO:TX:a:t=P:w źródle ozdobna kreska końcowa &colon;||&colon;:problem	!	!	!LO:TX:a:t=P:w źródle ozdobna kreska końcowa &colon;||&colon;:problem	!LO:TX:a:t=P:w źródle ozdobna kreska końcowa &colon;||&colon;:problem	!	!LO:TX:a:t=P:w źródle ozdobna kreska końcowa:problem	!	!LO:TX:a:t=P:w źródle ozdobna kreska końcowa &colon;||&colon;:problem	!	!LO:TX:a:t=P:w źródle ozdobna kreska końcowa:problem	!
==	==	==-	==	==	==	==	==	==	==	==	==
*-	*-	*-	*-	*-	*-	*-	*-	*-	*-	*-	*-
!!title: @{OTL};
!!!RDF**kern: > = above
!!!RDF**kern: < = below
!!!RDF**kern: N = linked
!!!RDF**kern: i = editorial accidental
!!!EED: Wojciech Jakubiak-Danek
!!!EST: 2020-11-04
!!!URL-scan: http://bc.bdsandomierz.pl/dlibra/publication/1751/edition/1719/content
!!!ONB-nifc:
!!!ENC: Krzysztof Stępień
!!!END: 2020-04-20
!!!RDF**kern: | = vertical stroke
